X: 34896
T: Roca House
R: jig
M: 6/8
K: Aminor
|:EAA GAA|EAG AGD|EAA ABc|B/c/dc BAG|
EAA GAA|EAG AGD|EDC DCB,|CB,G, A,3:|
|:A,A,A, C2B,|A,A,A, C2B,|A,A,A, C2B,|B,CD DEF|
EA,A, C2B,|A,A,A, C2B,|B,CD DEF|EDC D3:|

